X: 39123
T: Sweet Ellen
R: reel
M: 4/4
K: Dmajor
A,|D2 DE F2 ED|FAAF A3A|BABc dBAG|FDED E2F2|
A,DDD F2ED|FAAF A3A|BABc dBAG|F2D2D2|
de|f a2 b afde|fede fede|f a2 b afde|fe e2 e3 e|
faab afde|.f z ed B2 A2|BcdB AGED|F2 D2 D2||

